assets/security-color/SecurityColor10.svg

<svg xmlns="http://www.w3.org/2000/svg" data-name="Layer 3" viewBox="0 0 128 128"><circle cx="37.276" cy="38.779" r="8.741" fill="#ff5e4d"/><circle cx="64" cy="38.779" r="8.741" fill="#fdc028"/><circle cx="90.724" cy="38.779" r="8.741" fill="#fdc028"/><circle cx="37.276" cy="64" r="8.741" fill="#fdc028"/><circle cx="64" cy="64" r="8.741" fill="#ff5e4d"/><circle cx="90.724" cy="64" r="8.741" fill="#fdc028"/><circle cx="37.276" cy="89.221" r="8.741" fill="#fdc028"/><circle cx="64" cy="89.221" r="8.741" fill="#fdc028"/><circle cx="90.724" cy="89.221" r="8.741" fill="#ff5e4d"/><path fill="#231f20" d="M74.354 38.779A10.354 10.354 0 1064 49.133a10.366 10.366 0 0010.354-10.354zm-17.482 0A7.128 7.128 0 1164 45.907a7.136 7.136 0 01-7.128-7.128zM90.723 28.425a10.354 10.354 0 1010.354 10.354 10.366 10.366 0 00-10.354-10.354zm0 17.482a7.128 7.128 0 117.128-7.128 7.136 7.136 0 01-7.128 7.128zM37.276 53.646A10.354 10.354 0 1047.63 64a10.366 10.366 0 00-10.354-10.354zm0 17.482A7.128 7.128 0 1144.4 64a7.136 7.136 0 01-7.124 7.128zM90.723 53.646A10.354 10.354 0 10101.077 64a10.366 10.366 0 00-10.354-10.354zm0 17.482A7.128 7.128 0 1197.851 64a7.136 7.136 0 01-7.128 7.128zM37.276 78.867A10.354 10.354 0 1047.63 89.221a10.366 10.366 0 00-10.354-10.354zm0 17.482a7.128 7.128 0 117.124-7.128 7.136 7.136 0 01-7.124 7.128zM53.646 89.221A10.354 10.354 0 1064 78.867a10.366 10.366 0 00-10.354 10.354zm17.482 0A7.128 7.128 0 1164 82.093a7.136 7.136 0 017.128 7.128z"/><path fill="#231f20" d="M90.723 99.575A10.354 10.354 0 1084.4 81.038L72.54 69.842a10.34 10.34 0 00-14.86-14.025l-11.863-11.2a10.442 10.442 0 10-2.217 2.345l11.863 11.2A10.34 10.34 0 0070.32 72.183l11.863 11.2a10.345 10.345 0 008.541 16.2zm0-17.482a7.128 7.128 0 11-7.123 7.128 7.045 7.045 0 01.995-3.57l2.58 2.435a3.7 3.7 0 00-.194 1.135 3.778 3.778 0 102.4-3.487l-2.593-2.447a7.081 7.081 0 013.935-1.194zM64 56.872A7.136 7.136 0 0171.128 64a7.046 7.046 0 01-.995 3.57l-2.581-2.436A3.7 3.7 0 0067.746 64a3.725 3.725 0 00-5.09-3.487l-2.593-2.447A7.082 7.082 0 0164 56.872zM37.276 45.907a7.128 7.128 0 117.124-7.128 7.045 7.045 0 01-.995 3.57l-2.58-2.435a3.7 3.7 0 00.194-1.135 3.778 3.778 0 10-2.4 3.487l2.593 2.447a7.081 7.081 0 01-3.936 1.194zM64 71.128A7.136 7.136 0 0156.872 64a7.045 7.045 0 01.995-3.57l2.581 2.436A3.7 3.7 0 0060.254 64a3.725 3.725 0 005.09 3.487l2.593 2.447A7.081 7.081 0 0164 71.128z"/></svg>

<svg id="Layer_3" data-name="Layer 3" xmlns="http://www.w3.org/2000/svg" viewBox="0 0 128 128"><title>Artboard 106</title><circle cx="37.276" cy="38.779" r="8.741" style="fill:#ff5e4d"/><circle cx="64" cy="38.779" r="8.741" style="fill:#fdc028"/><circle cx="90.724" cy="38.779" r="8.741" style="fill:#fdc028"/><circle cx="37.276" cy="64" r="8.741" style="fill:#fdc028"/><circle cx="64" cy="64" r="8.741" style="fill:#ff5e4d"/><circle cx="90.724" cy="64" r="8.741" style="fill:#fdc028"/><circle cx="37.276" cy="89.221" r="8.741" style="fill:#fdc028"/><circle cx="64" cy="89.221" r="8.741" style="fill:#fdc028"/><circle cx="90.724" cy="89.221" r="8.741" style="fill:#ff5e4d"/><path d="M74.354,38.779A10.354,10.354,0,1,0,64,49.133,10.366,10.366,0,0,0,74.354,38.779Zm-17.482,0A7.128,7.128,0,1,1,64,45.907,7.136,7.136,0,0,1,56.872,38.779Z" style="fill:#231f20"/><path d="M90.723,28.425a10.354,10.354,0,1,0,10.354,10.354A10.366,10.366,0,0,0,90.723,28.425Zm0,17.482a7.128,7.128,0,1,1,7.128-7.128A7.136,7.136,0,0,1,90.723,45.907Z" style="fill:#231f20"/><path d="M37.276,53.646A10.354,10.354,0,1,0,47.63,64,10.366,10.366,0,0,0,37.276,53.646Zm0,17.482A7.128,7.128,0,1,1,44.4,64,7.136,7.136,0,0,1,37.276,71.128Z" style="fill:#231f20"/><path d="M90.723,53.646A10.354,10.354,0,1,0,101.077,64,10.366,10.366,0,0,0,90.723,53.646Zm0,17.482A7.128,7.128,0,1,1,97.851,64,7.136,7.136,0,0,1,90.723,71.128Z" style="fill:#231f20"/><path d="M37.276,78.867A10.354,10.354,0,1,0,47.63,89.221,10.366,10.366,0,0,0,37.276,78.867Zm0,17.482A7.128,7.128,0,1,1,44.4,89.221,7.136,7.136,0,0,1,37.276,96.349Z" style="fill:#231f20"/><path d="M53.646,89.221A10.354,10.354,0,1,0,64,78.867,10.366,10.366,0,0,0,53.646,89.221Zm17.482,0A7.128,7.128,0,1,1,64,82.093,7.136,7.136,0,0,1,71.128,89.221Z" style="fill:#231f20"/><path d="M90.723,99.575A10.354,10.354,0,1,0,84.4,81.038L72.54,69.842A10.34,10.34,0,0,0,57.68,55.817l-11.863-11.2A10.442,10.442,0,1,0,43.6,46.962l11.863,11.2A10.34,10.34,0,0,0,70.32,72.183l11.863,11.2a10.345,10.345,0,0,0,8.541,16.2Zm0-17.482A7.128,7.128,0,1,1,83.6,89.221a7.045,7.045,0,0,1,.995-3.57l2.58,2.435a3.7,3.7,0,0,0-.194,1.135,3.778,3.778,0,1,0,2.4-3.487l-2.593-2.447A7.081,7.081,0,0,1,90.723,82.093ZM64,56.872A7.136,7.136,0,0,1,71.128,64a7.046,7.046,0,0,1-.995,3.57l-2.581-2.436A3.7,3.7,0,0,0,67.746,64a3.725,3.725,0,0,0-5.09-3.487l-2.593-2.447A7.082,7.082,0,0,1,64,56.872ZM37.276,45.907A7.128,7.128,0,1,1,44.4,38.779a7.045,7.045,0,0,1-.995,3.57l-2.58-2.435a3.7,3.7,0,0,0,.194-1.135,3.778,3.778,0,1,0-2.4,3.487l2.593,2.447A7.081,7.081,0,0,1,37.276,45.907ZM64,71.128A7.136,7.136,0,0,1,56.872,64a7.045,7.045,0,0,1,.995-3.57l2.581,2.436A3.7,3.7,0,0,0,60.254,64a3.725,3.725,0,0,0,5.09,3.487l2.593,2.447A7.081,7.081,0,0,1,64,71.128Z" style="fill:#231f20"/></svg>
